X:1
T:Title
%%score { ( 1 3 ) | ( 2 4 ) }
L:1/8
M:6/4
K:F
V:1 treble nm="Grand Piano"
V:3 treble 
V:2 bass 
V:4 bass 
V:1
 z12[Q:1/4=138] | [CFA]6 [EBc]6 | [CFA]6 [EBc]6 | [FAc]6 [GA^c]6 | [FAd]12 | [DGB]6 [^Fcd]6 | %6
 [DGB]6 [^Fcd]6 | [FG=Bd]6 [FGBd]6 |[M:5/4] [GBc]6 [EGBc]4 |[M:1/4] z2 | %10
[M:6/4] [Af]4 [Af]2 e4 ^cA | [Fd]4 [Fd]2 c4 AF | G2 A2 B2 [Fc]2 [Fd]2 [CFA]2 | %13
[M:5/4] G4- [EG]2 [F,A,F]4 |] %14
V:2
 z6 z4 B,,2 | F,2 G,2 A,2 G,4 C,2 | F,2 G,2 A,2 C4 C,2 | F,2 G,2 A,2 E,2 F,2 E,2 | D,6- D,4 D,2 | %5
 G,2 A,2 B,2 A,4 D,2 | G,2 A,2 B,2[K:treble] D4 D2 | D2 G,2 A,2 =B,2 C2 D2 |[M:5/4] E2 _E2 =E2 C4 | %9
[M:1/4] de |[M:6/4][K:bass] [D,D]4 [D,D]2[K:treble] [A,^CA]4 [A,EA][K:bass][A,CE] | %11
 [B,,B,]4 [D,B,]2 [F,A,F]4 [F,CF][F,A,C] | [B,D]2 [^F,CD]2 [G,B,D]2 [C,A,]2 [C,A,]2 C,2 | %13
[M:5/4] z4 B,2 F,,4 |] %14
V:3
 x12 | x12 | x12 | x12 | x12 | x12 | x12 | x12 |[M:5/4] x10 |[M:1/4] x2 |[M:6/4] x12 | x12 | x12 | %13
[M:5/4] [=B,D]4 z2 z4 |] %14
V:4
 x12 | x12 | x12 | x12 | x12 | x12 | x6[K:treble] x6 | x12 |[M:5/4] x10 |[M:1/4] x2 | %10
[M:6/4][K:bass] x6[K:treble] x5[K:bass] x | x12 | x12 |[M:5/4] C,6 z4 |] %14

